X:1
T:With My Savior Glorified
T:With My Savior Glorified
T:Herbert G. Tovey
T:R. K. Wilson, 1920
T:Public Domain Courtesy of the Cyber Hymnal™
T:Public Domain Courtesy of the Cyber Hymnal™
C:Herbert G. Tovey
Z:Public Domain
Z:Courtesy of the Cyber Hymnal™
%%score ( 1 2 ) ( 3 4 )
L:1/8
Q:1/4=98
M:4/4
K:Bb
V:1 treble 
V:2 treble 
V:3 bass 
V:4 bass 
V:1
 d3 (z c)BFA>G | [DF]8 | e3 d cA [EG]>[A,E] | D8 | d3 (z c)BFA>G | F8 | F3 G Ac G>A | B8 | %8
w: 1.~Sav- * ior, time is fleet-|ing|by, Soon this life will end-|ed|be, * And my soul will|dwell|on high In that bright e-|ter-|
w: 2.~On * the cross, oh, cru-|el|tree, Thou didst pay the price|of|sin, * That my soul may|ran-|somed be, And to Hea- ven|en-|
w: 3.~When * my pil- grim- age|is|o’er, And I’ve laid my tro-|phies|down, * May Thine in- vi-|ta-|tion be, “En- ter thou, re-|ceive|
w: 4.~I * shall meet my Sav-|ior|there, As the gates swing wide|for|me; * Then with saints and|an-|gels fair All His glo- ry|I|
 c3 B AGFE | D3 F [DB]4 | B3 B BBcd | c8 | d3 (z c)BFA>G | F8 | F3 G Ac G>A | B8 || %16
w: ni- ty. But I need Thee|whilst on earth|I stay, There is much for|me|to * do; Strength I need|each|pass- ing day, To be loy-|al,|
w: ter in. Ho- ly, ho- ly|is Thy match-|less name, This my song shall|ev-|er * be; Ho- ly, ho-|ly|is Thy name Now and through|e-|
w: the crown.” Thou, my Sav- ior,|Thou hast saved|a- lone, This poor guilt- y|soul|of * mine; Make my heart|Thy|roy- al throne, Reign as king|and|
w: shall see. There’s a man- sion|now pre- pared|for me, Je- sus made this|prom-|ise * sure; In that blest|e-|ter- ni- ty I shall dwell|for-|
"^Refrain" d3 d dd[Ge][Fd] | d3 c [_EAc]4 | B3 B BBcd | c8 | d3 (z c)BFA>G | F8 | F3 G Ac G>A | %23
w: pure and true. * * *|||||||
w: ter- ni- ty. Oh, the pro-|mise that He|gave to me, When He suf-|fered|bled * and died; That for-|ev-|er I should be With my|
w: Lord di- vine. * * *|||||||
w: ev- er- more. * * *|||||||
 B8 |] %24
w: |
w: Sav-|
w: |
w: |
V:2
 F2 (D2 D2) ^C2 x | x8 | F4 E2 x2 | (B,4 D4) | F2 (D2 D2) ^C2 x | x8 | E4 E4 | (D2 E2 D4) | %8
 E4 E2 E2 | D4 x4 | [DG]4 [=EG]2 [EB]2 | (E4 F4) | F2 (D2 D2) ^C2 x | x8 | E4 E4 | (D2 E2 D4) || %16
 F4 F2 x2 | [=EB]4 x4 | [DG]4 [=EG]2 [EB]2 | (E4 F4) | F2 (D2 D2) ^C2 x | x8 | E4 E4 | %23
 (D2 E2 D4) |] %24
V:3
 B,2 F,2 [B,,F,]2 [B,,=E,]2 x | (F,2 G,2 A,2 B,2) | F,,2 [F,A,E]2 [F,,F,]2 A,F, | (F,4 B,4) | %4
 B,2 F,2 [B,,F,]2 [B,,=E,]2 x | (F,2 G,2 A,2 B,2) | F,,2 [F,A,]2 [F,,F,]2 [F,A,]2 | (B,2 G,2 F,4) | %8
 [F,,F,]2 [F,A,]2 F,,2 [F,A,]2 | (F,2 B,2) (B,2 F,2) | G,,2 [G,B,]2 [C,,C,]2 [C,G,B,]2 | %11
 ([F,,F,]2 [F,A,]2 [F,A,E]4) | B,2 F,2 [B,,F,]2 [B,,=E,]2 x | (F,2 G,2 A,2 B,2) | %14
 G,,2 [F,A,]2 [F,,F,]2 [F,A,]2 | (B,2 G,2 F,4) || B,,2 [F,B,D]2 [G,,G,]2 [G,=B,]2 | %17
 ([C,,C,]2 [C,B,]2) ([F,,F,]2 [^F,A,]2) | G,,2 [G,B,]2 [C,,C,]2 [C,G,B,]2 | %19
 ([F,,F,]2 [F,A,]2 [F,A,E]4) | B,2 F,2 [B,,F,]2 [B,,=E,]2 x | (F,2 G,2 A,2 B,2) | %22
 G,,2 [F,A,]2 [F,,F,]2 [F,A,]2 | (B,2 G,2 F,4) |] %24
V:4
 B,,4 x5 | B,,8 | x6 F,2 | B,,8 | B,,4 x5 | B,,8 | x8 | B,,8 | x8 | B,,4 B,,4 | x8 | x8 | B,,4 x5 | %13
 B,,8 | x8 | B,,8 || x8 | x8 | x8 | x8 | B,,4 x5 | B,,8 | x8 | B,,8 |] %24

